assets/Waxing gibbous moon/Flat/waxing_gibbous_moon_flat.svg

<svg width="32" height="32" viewBox="0 0 32 32" fill="none" xmlns="http://www.w3.org/2000/svg">
<path d="M26 16C26 23.732 23 25.5 16 30C15.8905 30 15.7813 29.9987 15.6724 29.9962C8.09173 29.8222 2 23.6225 2 16C2 8.37297 8.099 2.17044 15.686 2.00345C15.7904 2.00115 15.895 2 16 2C20.5 4.5 26 8.26801 26 16Z" fill="#533566"/>
<path d="M15.681 29.9964C15.787 29.9988 15.8934 30 16 30C23.732 30 30 23.732 30 16C30 8.26801 23.732 2 16 2C15.8933 2 15.7869 2.00119 15.6809 2.00357C11.6054 5.30355 9 10.3475 9 15.9999C9 21.6525 11.6055 26.6965 15.681 29.9964Z" fill="#FCD53F"/>
<path d="M10.2603 9.36991C10.2951 9.2823 10.3305 9.19503 10.3665 9.1081C10.0894 9.03752 9.79909 9 9.5 9C7.567 9 6 10.567 6 12.5C6 14.2513 7.56756 15.7716 9 15.9645C9.07465 15.9745 9.00138 15.7716 9.00138 15.7716C10.1658 15.222 10.9999 13.7408 10.9999 11.9999C10.9999 10.993 10.7209 10.0731 10.2603 9.36991ZM4.75012 24.3346C6.15381 26.2261 8.02324 27.7514 10.1888 28.7407C10.6953 28.1336 11 27.3524 11 26.5C11 24.567 9.433 23 7.50001 23C6.38459 23 5.39104 23.5218 4.75012 24.3346Z" fill="#321B41"/>
<path d="M17 5.5C17 6.32843 16.3284 7 15.5 7C14.6716 7 14 6.32843 14 5.5C14 4.67157 14.6716 4 15.5 4C16.3284 4 17 4.67157 17 5.5ZM25 11.5C25 12.8807 23.8807 14 22.5 14C21.1193 14 20 12.8807 20 11.5C20 10.1193 21.1193 9 22.5 9C23.8807 9 25 10.1193 25 11.5ZM16.5 24C17.8807 24 19 22.8807 19 21.5C19 20.1193 17.8807 19 16.5 19C15.1193 19 14 20.1193 14 21.5C14 22.8807 15.1193 24 16.5 24ZM28.9554 21.316C28.0687 23.4748 26.658 25.3631 24.8816 26.8226C24.3331 26.2047 24 25.3912 24 24.5C24 22.567 25.567 21 27.5 21C28.0193 21 28.5122 21.1131 28.9554 21.316ZM9.00138 15.7717C9.00059 15.8359 9.00012 15.9002 9 15.9645C9.1633 15.9879 9.33023 16 9.49999 16C11.433 16 13 14.433 13 12.5C13 10.8661 11.8804 9.49368 10.3666 9.10809C10.3305 9.19504 10.2951 9.28233 10.2603 9.36997C10.7209 10.0731 10.9999 10.9931 10.9999 12C10.9999 13.7409 10.1658 15.222 9.00138 15.7717Z" fill="#F9C23C"/>
</svg>

<svg xmlns="http://www.w3.org/2000/svg" width="32" height="32" fill="none"><path fill="#533566" d="M26 16c0 7.732-3 9.5-10 14-.11 0-.219-.001-.328-.004C8.092 29.822 2 23.623 2 16 2 8.373 8.099 2.17 15.686 2.003 15.79 2.001 15.895 2 16 2c4.5 2.5 10 6.268 10 14Z"/><path fill="#FCD53F" d="M15.681 29.996c.106.003.212.004.319.004 7.732 0 14-6.268 14-14S23.732 2 16 2c-.107 0-.213.001-.32.004C11.606 5.304 9 10.348 9 16c0 5.652 2.605 10.697 6.681 13.996Z"/><path fill="#321B41" d="M10.26 9.37c.035-.088.07-.175.107-.262A3.5 3.5 0 0 0 6 12.5c0 1.751 1.568 3.272 3 3.464.075.01.001-.192.001-.192C10.166 15.222 11 13.74 11 12c0-1.007-.28-1.927-.74-2.63ZM4.75 24.335a14.054 14.054 0 0 0 5.439 4.406 3.5 3.5 0 1 0-5.439-4.406Z"/><path fill="#F9C23C" d="M17 5.5a1.5 1.5 0 1 1-3 0 1.5 1.5 0 0 1 3 0Zm8 6a2.5 2.5 0 1 1-5 0 2.5 2.5 0 0 1 5 0ZM16.5 24a2.5 2.5 0 1 0 0-5 2.5 2.5 0 0 0 0 5Zm12.455-2.684a14.038 14.038 0 0 1-4.073 5.507 3.5 3.5 0 0 1 4.074-5.507ZM9.001 15.772 9 15.964a3.5 3.5 0 0 0 1.367-6.856c-.037.087-.072.174-.107.262.46.703.74 1.623.74 2.63 0 1.74-.834 3.222-1.999 3.772Z"/></svg>
